X:151
T:Epping Forrest. VWMLa.151
%%VWML:Anon2-3049-p91-0
F:http://www.vwml.org/record/Anon2/3049/p91
S:Anon. MS, late 18thC, Vaughan Williams Mem. Library
O:England;Yorkshire
Z:vmp/efdss.Simon Wilson. Reviewed PJH 2008.
M:6/8
L:1/8
Q:3/8=120
K:F
f2f faf|gecc3|d2d def|cAF F3|\
G2G GAB|cAF FEF|GBA GFE|F3 F3:|
|:A,2c !turn!cBc|B,2dd3|G,2B !turn!BAB|A,2c c3|\
F2A AGA|B2G GAB|cBA GFE|F3 F3:|
|:(b2g) (e2c)|(f2a) c3|(d2B) (G2E)|(F2A) C3|\
(b2g) (e2c)|(f2a) c3|(d2B) (G2E)|F3 F2z:|
